icon-themes/breeze_svg/cmd/32/save.svg

<svg viewBox="0 0 32 32" xmlns="http://www.w3.org/2000/svg"><path d="m4 4v24h5 14 5v-18l-1-1-4-4-1-1h-1-11zm1 1h5v8h11v-8h.585938l5.414062 5.414062v16.585938h-4v-8h-14v8h-4zm6 0h6v7h-6zm-1 15h12v7h-12z" fill="#4d4d4d"/></svg>

<svg xmlns="http://www.w3.org/2000/svg" viewBox="0 0 32 32">
 <path 
     style="fill:#4d4d4d" 
     d="M 4 4 L 4 28 L 9 28 L 23 28 L 28 28 L 28 10 L 27 9 L 23 5 L 22 4 L 21 4 L 10 4 L 4 4 z M 5 5 L 10 5 L 10 13 L 21 13 L 21 5 L 21.585938 5 L 27 10.414062 L 27 27 L 23 27 L 23 19 L 9 19 L 9 27 L 5 27 L 5 5 z M 11 5 L 17 5 L 17 12 L 11 12 L 11 5 z M 10 20 L 22 20 L 22 27 L 10 27 L 10 20 z "
     />
</svg>
